X:1
T:Oh! Susanna
C:Stephen Foster
M:4/4
L:1/4
Q:1/4=120
K:G
G G A B | d d d d | d c B A | G2 G2 | G G A B | d d d c | B A G A | B2 |]
w: I come from Al- a- ba- ma with my ban- jo on my knee | I'm going to Lou- i- si- a- na my Su- san- na for to see | I come from Al- a- ba- ma with my ban- jo on my knee
